{
  "compressionlevel": -1,
  "infinite": false,
  "orientation": "orthogonal",
  "renderorder": "right-down",
  "tiledversion": "1.11.0",
  "tilewidth": 32,
  "tileheight": 32,
  "type": "map",
  "version": "1.10",
  "width": 50,
  "height": 20,
  "nextlayerid": 3,
  "nextobjectid": 100,
  "properties": [
    {
      "name": "mapId",
      "type": "string",
      "value": "forest"
    },
    {
      "name": "displayName",
      "type": "string",
      "value": "Whispering Forest"
    },
    {
      "name": "placement",
      "type": "string",
      "value": "shared"
    },
    {
      "name": "capacity",
      "type": "int",
      "value": 30
    },
    {
      "name": "minLevel",
      "type": "int",
      "value": 5
    },
    {
      "name": "maxLevel",
      "type": "int",
      "value": 15
    }
  ],
  "layers": [
    {
      "id": 1,
      "name": "collision",
      "type": "objectgroup",
      "draworder": "topdown",
      "opacity": 1,
      "visible": true,
      "x": 0,
      "y": 0,
      "objects": [
        {
          "id": 1,
          "name": "floor",
          "class": "solid",
          "x": 0,
          "y": 608,
          "width": 1600,
          "height": 32,
          "rotation": 0,
          "visible": true
        },
        {
          "id": 2,
          "name": "wall-left",
          "class": "solid",
          "x": 0,
          "y": 0,
          "width": 32,
          "height": 608,
          "rotation": 0,
          "visible": true
        },
        {
          "id": 3,
          "name": "wall-right",
          "class": "solid",
          "x": 1568,
          "y": 0,
          "width": 32,
          "height": 608,
          "rotation": 0,
          "visible": true
        },
        {
          "id": 4,
          "name": "outcrop",
          "class": "solid",
          "x": 700,
          "y": 448,
          "width": 128,
          "height": 160,
          "rotation": 0,
          "visible": true
        },
        {
          "id": 5,
          "name": "canopy-low",
          "class": "platform",
          "x": 220,
          "y": 512,
          "width": 200,
          "height": 16,
          "rotation": 0,
          "visible": true
        },
        {
          "id": 6,
          "name": "canopy-mid",
          "class": "platform",
          "x": 520,
          "y": 400,
          "width": 180,
          "height": 16,
          "rotation": 0,
          "visible": true
        },
        {
          "id": 7,
          "name": "canopy-high",
          "class": "platform",
          "x": 900,
          "y": 320,
          "width": 220,
          "height": 16,
          "rotation": 0,
          "visible": true
        },
        {
          "id": 8,
          "name": "canopy-far",
          "class": "platform",
          "x": 1220,
          "y": 448,
          "width": 200,
          "height": 16,
          "rotation": 0,
          "visible": true
        },
        {
          "id": 9,
          "name": "vine-a",
          "class": "rope",
          "x": 600,
          "y": 400,
          "width": 16,
          "height": 208,
          "rotation": 0,
          "visible": true
        },
        {
          "id": 10,
          "name": "vine-b",
          "class": "rope",
          "x": 1000,
          "y": 320,
          "width": 16,
          "height": 288,
          "rotation": 0,
          "visible": true
        }
      ]
    },
    {
      "id": 2,
      "name": "gameplay",
      "type": "objectgroup",
      "draworder": "topdown",
      "opacity": 1,
      "visible": true,
      "x": 0,
      "y": 0,
      "objects": [
        {
          "id": 20,
          "name": "from-tutorial",
          "class": "spawn_point",
          "x": 120,
          "y": 608,
          "width": 0,
          "height": 0,
          "rotation": 0,
          "visible": true,
          "properties": [
            {
              "name": "isDefault",
              "type": "bool",
              "value": true
            }
          ]
        },
        {
          "id": 21,
          "name": "from-grove",
          "class": "spawn_point",
          "x": 1480,
          "y": 608,
          "width": 0,
          "height": 0,
          "rotation": 0,
          "visible": true,
          "properties": []
        },
        {
          "id": 22,
          "name": "to-tutorial",
          "class": "portal",
          "x": 32,
          "y": 512,
          "width": 48,
          "height": 96,
          "rotation": 0,
          "visible": true,
          "properties": [
            {
              "name": "target_map",
              "type": "string",
              "value": "tutorial"
            },
            {
              "name": "target_spawn",
              "type": "string",
              "value": "from-forest"
            }
          ]
        },
        {
          "id": 23,
          "name": "to-grove",
          "class": "portal",
          "x": 1500,
          "y": 512,
          "width": 48,
          "height": 96,
          "rotation": 0,
          "visible": true,
          "properties": [
            {
              "name": "target_map",
              "type": "string",
              "value": "grove"
            },
            {
              "name": "target_spawn",
              "type": "string",
              "value": "entrance"
            },
            {
              "name": "required_level",
              "type": "int",
              "value": 10
            }
          ]
        },
        {
          "id": 24,
          "name": "Whispering Forest",
          "class": "waypoint",
          "x": 200,
          "y": 544,
          "width": 40,
          "height": 64,
          "rotation": 0,
          "visible": true,
          "properties": [
            {
              "name": "waypoint_id",
              "type": "string",
              "value": "wp_forest"
            }
          ]
        },
        {
          "id": 30,
          "name": "boars-west",
          "class": "mob_spawn",
          "x": 400,
          "y": 608,
          "width": 0,
          "height": 0,
          "rotation": 0,
          "visible": true,
          "properties": [
            {
              "name": "mob_id",
              "type": "string",
              "value": "boar_wild"
            },
            {
              "name": "layer",
              "type": "string",
              "value": "owner"
            },
            {
              "name": "respawn_ms",
              "type": "int",
              "value": 6000
            },
            {
              "name": "max_alive",
              "type": "int",
              "value": 3
            },
            {
              "name": "radius",
              "type": "int",
              "value": 100
            }
          ]
        },
        {
          "id": 31,
          "name": "boars-east",
          "class": "mob_spawn",
          "x": 1100,
          "y": 608,
          "width": 0,
          "height": 0,
          "rotation": 0,
          "visible": true,
          "properties": [
            {
              "name": "mob_id",
              "type": "string",
              "value": "boar_wild"
            },
            {
              "name": "layer",
              "type": "string",
              "value": "owner"
            },
            {
              "name": "respawn_ms",
              "type": "int",
              "value": 6000
            },
            {
              "name": "max_alive",
              "type": "int",
              "value": 3
            },
            {
              "name": "radius",
              "type": "int",
              "value": 100
            }
          ]
        },
        {
          "id": 32,
          "name": "slimes-canopy",
          "class": "mob_spawn",
          "x": 980,
          "y": 320,
          "width": 0,
          "height": 0,
          "rotation": 0,
          "visible": true,
          "properties": [
            {
              "name": "mob_id",
              "type": "string",
              "value": "slime_green"
            },
            {
              "name": "layer",
              "type": "string",
              "value": "owner"
            },
            {
              "name": "respawn_ms",
              "type": "int",
              "value": 5000
            },
            {
              "name": "max_alive",
              "type": "int",
              "value": 2
            },
            {
              "name": "radius",
              "type": "int",
              "value": 80
            }
          ]
        },
        {
          "id": 40,
          "name": "tide",
          "class": "mob_spawn",
          "x": 760,
          "y": 608,
          "width": 0,
          "height": 0,
          "rotation": 0,
          "visible": true,
          "properties": [
            {
              "name": "mob_id",
              "type": "string",
              "value": "slime_green"
            },
            {
              "name": "layer",
              "type": "string",
              "value": "shared"
            },
            {
              "name": "respawn_ms",
              "type": "int",
              "value": 2500
            },
            {
              "name": "max_alive",
              "type": "int",
              "value": 8
            },
            {
              "name": "radius",
              "type": "int",
              "value": 260
            }
          ]
        },
        {
          "id": 41,
          "name": "warden-call",
          "class": "shrine",
          "x": 1180,
          "y": 560,
          "width": 48,
          "height": 48,
          "rotation": 0,
          "visible": true,
          "properties": []
        },
        {
          "id": 42,
          "name": "warden",
          "class": "mob_spawn",
          "x": 1100,
          "y": 608,
          "width": 0,
          "height": 0,
          "rotation": 0,
          "visible": true,
          "properties": [
            {
              "name": "mob_id",
              "type": "string",
              "value": "boar_wild"
            },
            {
              "name": "layer",
              "type": "string",
              "value": "shared"
            },
            {
              "name": "respawn_ms",
              "type": "int",
              "value": 60000
            },
            {
              "name": "max_alive",
              "type": "int",
              "value": 3
            },
            {
              "name": "radius",
              "type": "int",
              "value": 90
            }
          ]
        },
        {
          "id": 50,
          "name": "oak-west",
          "class": "resource_node",
          "x": 300,
          "y": 608,
          "width": 0,
          "height": 0,
          "rotation": 0,
          "visible": true,
          "properties": [
            {
              "name": "node_id",
              "type": "string",
              "value": "tree_oak"
            }
          ]
        },
        {
          "id": 51,
          "name": "oak-east",
          "class": "resource_node",
          "x": 1320,
          "y": 608,
          "width": 0,
          "height": 0,
          "rotation": 0,
          "visible": true,
          "properties": [
            {
              "name": "node_id",
              "type": "string",
              "value": "tree_oak"
            }
          ]
        },
        {
          "id": 52,
          "name": "willow-far",
          "class": "resource_node",
          "x": 1280,
          "y": 448,
          "width": 0,
          "height": 0,
          "rotation": 0,
          "visible": true,
          "properties": [
            {
              "name": "node_id",
              "type": "string",
              "value": "tree_willow"
            }
          ]
        },
        {
          "id": 53,
          "name": "copper-outcrop",
          "class": "resource_node",
          "x": 760,
          "y": 448,
          "width": 0,
          "height": 0,
          "rotation": 0,
          "visible": true,
          "properties": [
            {
              "name": "node_id",
              "type": "string",
              "value": "rock_copper"
            }
          ]
        },
        {
          "id": 54,
          "name": "herbs-canopy",
          "class": "resource_node",
          "x": 600,
          "y": 400,
          "width": 0,
          "height": 0,
          "rotation": 0,
          "visible": true,
          "properties": [
            {
              "name": "node_id",
              "type": "string",
              "value": "herb_patch"
            }
          ]
        }
      ]
    }
  ]
}
