{
  "compressionlevel": -1,
  "height": 20,
  "infinite": false,
  "orientation": "orthogonal",
  "renderorder": "right-down",
  "tiledversion": "1.11.0",
  "tileheight": 32,
  "tilewidth": 32,
  "type": "map",
  "version": "1.10",
  "width": 40,
  "nextlayerid": 3,
  "nextobjectid": 21,
  "properties": [
    {
      "name": "mapId",
      "type": "string",
      "value": "tutorial"
    },
    {
      "name": "displayName",
      "type": "string",
      "value": "Training Grounds"
    },
    {
      "name": "placement",
      "type": "string",
      "value": "shared"
    },
    {
      "name": "capacity",
      "type": "int",
      "value": 30
    },
    {
      "name": "minLevel",
      "type": "int",
      "value": 1
    },
    {
      "name": "maxLevel",
      "type": "int",
      "value": 8
    }
  ],
  "layers": [
    {
      "id": 1,
      "name": "collision",
      "type": "objectgroup",
      "draworder": "topdown",
      "opacity": 1,
      "visible": true,
      "x": 0,
      "y": 0,
      "objects": [
        {
          "id": 1,
          "name": "floor",
          "class": "solid",
          "x": 0,
          "y": 608,
          "width": 1280,
          "height": 32,
          "rotation": 0,
          "visible": true
        },
        {
          "id": 2,
          "name": "wall-left",
          "class": "solid",
          "x": 0,
          "y": 0,
          "width": 32,
          "height": 608,
          "rotation": 0,
          "visible": true
        },
        {
          "id": 3,
          "name": "wall-right",
          "class": "solid",
          "x": 1248,
          "y": 0,
          "width": 32,
          "height": 608,
          "rotation": 0,
          "visible": true
        },
        {
          "id": 4,
          "name": "pillar",
          "class": "solid",
          "x": 1024,
          "y": 512,
          "width": 96,
          "height": 96,
          "rotation": 0,
          "visible": true
        },
        {
          "id": 5,
          "name": "ledge-low-left",
          "class": "platform",
          "x": 160,
          "y": 512,
          "width": 192,
          "height": 16,
          "rotation": 0,
          "visible": true
        },
        {
          "id": 6,
          "name": "ledge-mid",
          "class": "platform",
          "x": 448,
          "y": 416,
          "width": 192,
          "height": 16,
          "rotation": 0,
          "visible": true
        },
        {
          "id": 7,
          "name": "ledge-low-right",
          "class": "platform",
          "x": 736,
          "y": 512,
          "width": 192,
          "height": 16,
          "rotation": 0,
          "visible": true
        },
        {
          "id": 8,
          "name": "ledge-high",
          "class": "platform",
          "x": 352,
          "y": 288,
          "width": 160,
          "height": 16,
          "rotation": 0,
          "visible": true
        },
        {
          "id": 9,
          "name": "ledge-top",
          "class": "platform",
          "x": 704,
          "y": 224,
          "width": 224,
          "height": 16,
          "rotation": 0,
          "visible": true
        },
        {
          "id": 10,
          "name": "rope-main",
          "class": "rope",
          "x": 976,
          "y": 224,
          "width": 16,
          "height": 384,
          "rotation": 0,
          "visible": true
        },
        {
          "id": 11,
          "name": "rope-short",
          "class": "rope",
          "x": 416,
          "y": 288,
          "width": 16,
          "height": 144,
          "rotation": 0,
          "visible": true
        }
      ]
    },
    {
      "id": 2,
      "name": "gameplay",
      "type": "objectgroup",
      "draworder": "topdown",
      "opacity": 1,
      "visible": true,
      "x": 0,
      "y": 0,
      "objects": [
        {
          "id": 12,
          "name": "start",
          "class": "spawn_point",
          "x": 200,
          "y": 608,
          "width": 0,
          "height": 0,
          "rotation": 0,
          "visible": true,
          "properties": [
            {
              "name": "isDefault",
              "type": "bool",
              "value": true
            }
          ]
        },
        {
          "id": 13,
          "name": "slimes-west",
          "class": "mob_spawn",
          "x": 420,
          "y": 608,
          "width": 0,
          "height": 0,
          "rotation": 0,
          "visible": true,
          "properties": [
            {
              "name": "mob_id",
              "type": "string",
              "value": "slime_green"
            },
            {
              "name": "layer",
              "type": "string",
              "value": "owner"
            },
            {
              "name": "respawn_ms",
              "type": "int",
              "value": 5000
            },
            {
              "name": "max_alive",
              "type": "int",
              "value": 3
            },
            {
              "name": "radius",
              "type": "int",
              "value": 90
            }
          ]
        },
        {
          "id": 14,
          "name": "slimes-east",
          "class": "mob_spawn",
          "x": 780,
          "y": 608,
          "width": 0,
          "height": 0,
          "rotation": 0,
          "visible": true,
          "properties": [
            {
              "name": "mob_id",
              "type": "string",
              "value": "slime_green"
            },
            {
              "name": "layer",
              "type": "string",
              "value": "owner"
            },
            {
              "name": "respawn_ms",
              "type": "int",
              "value": 5000
            },
            {
              "name": "max_alive",
              "type": "int",
              "value": 3
            },
            {
              "name": "radius",
              "type": "int",
              "value": 90
            }
          ]
        },
        {
          "id": 15,
          "name": "boars-far",
          "class": "mob_spawn",
          "x": 1160,
          "y": 608,
          "width": 0,
          "height": 0,
          "rotation": 0,
          "visible": true,
          "properties": [
            {
              "name": "mob_id",
              "type": "string",
              "value": "boar_wild"
            },
            {
              "name": "layer",
              "type": "string",
              "value": "owner"
            },
            {
              "name": "respawn_ms",
              "type": "int",
              "value": 8000
            },
            {
              "name": "max_alive",
              "type": "int",
              "value": 2
            },
            {
              "name": "radius",
              "type": "int",
              "value": 70
            }
          ]
        },
        {
          "id": 16,
          "name": "slimes-ledge",
          "class": "mob_spawn",
          "x": 560,
          "y": 416,
          "width": 0,
          "height": 0,
          "rotation": 0,
          "visible": true,
          "properties": [
            {
              "name": "mob_id",
              "type": "string",
              "value": "slime_green"
            },
            {
              "name": "layer",
              "type": "string",
              "value": "owner"
            },
            {
              "name": "respawn_ms",
              "type": "int",
              "value": 6000
            },
            {
              "name": "max_alive",
              "type": "int",
              "value": 2
            },
            {
              "name": "radius",
              "type": "int",
              "value": 60
            }
          ]
        },
        {
          "id": 18,
          "name": "to-forest",
          "class": "portal",
          "x": 1200,
          "y": 512,
          "width": 48,
          "height": 96,
          "rotation": 0,
          "visible": true,
          "properties": [
            {
              "name": "target_map",
              "type": "string",
              "value": "forest"
            },
            {
              "name": "target_spawn",
              "type": "string",
              "value": "from-tutorial"
            }
          ]
        },
        {
          "id": 19,
          "name": "Training Grounds",
          "class": "waypoint",
          "x": 96,
          "y": 544,
          "width": 40,
          "height": 64,
          "rotation": 0,
          "visible": true,
          "properties": [
            {
              "name": "waypoint_id",
              "type": "string",
              "value": "wp_tutorial"
            }
          ]
        },
        {
          "id": 20,
          "name": "from-forest",
          "class": "spawn_point",
          "x": 1160,
          "y": 608,
          "width": 0,
          "height": 0,
          "rotation": 0,
          "visible": true,
          "properties": []
        },
        {
          "id": 30,
          "name": "camp-anvil",
          "class": "station",
          "x": 40,
          "y": 560,
          "width": 56,
          "height": 48,
          "rotation": 0,
          "visible": true,
          "properties": [
            {
              "name": "station_id",
              "type": "string",
              "value": "anvil"
            }
          ]
        },
        {
          "id": 31,
          "name": "camp-fire",
          "class": "station",
          "x": 150,
          "y": 560,
          "width": 56,
          "height": 48,
          "rotation": 0,
          "visible": true,
          "properties": [
            {
              "name": "station_id",
              "type": "string",
              "value": "fire"
            }
          ]
        },
        {
          "id": 32,
          "name": "camp-cauldron",
          "class": "station",
          "x": 260,
          "y": 560,
          "width": 56,
          "height": 48,
          "rotation": 0,
          "visible": true,
          "properties": [
            {
              "name": "station_id",
              "type": "string",
              "value": "cauldron"
            }
          ]
        }
      ]
    }
  ]
}
